X: 26295
T: Memories Of Dan Beaton
R: reel
M: 4/4
K: Gminor
K:Bb
G|FD B2 dBcA|BGFD ECCE|DB, B,/B,/B, GFDF|GFGA BcBG|
FD B2 dBcA|BGFD ECCE|DB,B,B GEEF|GFGA B2 Bc||
dBBg fBBd|fgfd ecce|eBBg fBBA|GFGA B2 Bc|
dBBg fBBd|fgfd ecce|dB B/B/B bgfd|cFGA B2 B||

